X: 564
T: Biddy is my Darling.
T: 'si bri.gidin mo run.
R:jig
N:Cheerfully." "Collected from F. O'Neill."
B:O'Neill's 564
Z:Transcribed by J.B. Walsh walsh@math.ubc.ca
M:6/8
L:1/8
%Q:110
K:G
d|B z G c z A|BdB G z d|e z c e z f|{a}gfe d2f|
gfe dcB|edc BAG|1 FGA ABc|BcB A2:|2 FGA ABA|G3 G2||
d|g z d Bcd|efg d zd|g z f efg|age d z d|
g z a bag|efg d2 c|BAG FGA|G3 G2||


